!!!COM: Palestrina, Giovanni Perluigi da
!!!OPR: Missa De Beata Marie Virginis (II)
!!!OMD: Credo
!!!OTL: Genitum
**kern	**kern	**kern	**kern	**kern
*Ibass	*Itenor	*Itenor	*Icalto	*Icant
!Bassus	!Tenor 2	!Tenor 1	!Altus	!Cantus
*clefF4	*clefGv2	*clefGv2	*clefG2	*clefG2
*k[]	*k[]	*k[]	*k[]	*k[]
*G:mix	*G:mix	*G:mix	*G:mix	*G:mix
*M4/2	*M4/2	*M4/2	*M4/2	*M4/2
=31	=31	=31	=31	=31
1.d	1r	0r	0r	0r
.	[1a	.	.	.
2d	.	.	.	.
=32	=32	=32	=32	=32
2c	2a]	0r	0r	0r
2A	2a	.	.	.
[1c	2g	.	.	.
.	2e	.	.	.
=33	=33	=33	=33	=33
2c]	1.g	0r	0r	0r
4B	.	.	.	.
4A	.	.	.	.
4B	.	.	.	.
4c	.	.	.	.
[2d	2f	.	.	.
=34	=34	=34	=34	=34
2d]	1e	0r	2r	1r
2c#	.	.	1a	.
1d	1d	.	.	2r
.	.	.	2b	2dd
=35	=35	=35	=35	=35
0r	0r	2r	2cc	2ee
.	.	2d	2a	2ff
.	.	2e	2g	2gg
.	.	2f	2a	2ff
=36	=36	=36	=36	=36
0r	0r	2g	2b	2dd
.	.	2f	4a	2.ff
.	.	.	4g	.
.	.	2d	4f	.
.	.	.	4g	4ee
.	.	[2f	[2a	2dd
=37	=37	=37	=37	=37
0r	1r	4f]	4a]	4cc
.	.	4g	4g	4b
.	.	2e	1g	4b
.	.	.	.	8a
.	.	.	.	8g
.	2r	1d	.	1a
.	[2d	.	2f#	.
=38	=38	=38	=38	=38
1r	2d]	2.G	2g	2.b
.	2d	.	1d	.
.	.	4A	.	4cc
2r	2.G	4B	.	[1dd
.	.	4A	.	.
[2G	.	4B	2d	.
.	4A	4c	.	.
=39	=39	=39	=39	=39
2G]	1B	1d	2G	1dd]
2G	.	.	2d	.
2.C	[1c	1r	2.e	2r
.	.	.	.	[2gg
4D	.	.	4f	.
=40	=40	=40	=40	=40
1E	2c]	0r	2g	2gg]
.	2B	.	4e	2gg
.	.	.	8f#	.
.	.	.	8g	.
1F	2A	.	1a	2cc
.	[2d	.	.	2dd
=41	=41	=41	=41	=41
1E	4d]	1r	1g	1ee
.	4c	.	.	.
.	1c	.	.	.
[1D	.	[1d	1f	[1ff
.	4B	.	.	.
.	4A	.	.	.
=42	=42	=42	=42	=42
1D]	1B	2d]	2r	1ff]
.	.	2d	2d	.
1C	1c	2G	1e	1ee
.	.	2A	.	.
=43	=43	=43	=43	=43
1G	2.d	1B	2.g	2dd
.	.	.	.	2dd
.	8c	.	4g	.
.	8d	.	.	.
2E	2e	1c	2g	2cc
2F	2c	.	[2a	2a
=44	=44	=44	=44	=44
1G	2e	1B	4a]	2.b
.	.	.	4g	.
.	1d	.	1g	.
.	.	.	.	4cc
1D	.	1A	.	2dd
.	2d	.	2f#	2a
=45	=45	=45	=45	=45
[0G	[0d	[0G	[0g	[0b
=46	=46	=46	=46	=46
0G]	0d]	0G]	0g]	0b]
*-	*-	*-	*-	*-
!!!CDT: 1525/^1526/-1594/2/2
!!!OCY: Italia
!!!AGN: Mass (Paraphrase)
!!!AST: renaissance, vocal
!!!ASW: Gregorian Mass
!!!PWK: Masses, Book Mantuan I
!!!RNB: Cadence finals: D
!!!YOR: Le Opere Complete, v. 18, p. 126
!!!YOO: Rome, Italy: Fratelli Scalera
!!!END: 1992//
!!!EED: John Miller
!!!YEC: Copyright 2000, John Miller
!!!YEN: United States of America
!!!YEM: Rights to all derivative electronic formats reserved.
!!!YEM: Refer to licensing agreement for further details.
!!!YEM: This file must be accompanied by the licensing agreement.
!!!YEM: A copy of the licensing agreement may be found at http://www.music-cog.ohio-state.edu/HumdrumDatabases/Palestrina/license.txt
!!!EMD: converted to Humdrum by Bret Aarden
